X:1169
M:C
L:1/8
Q:1/2=56 "Slow"
K:D
d>e|f>d e>B d>B  A>F|   A2    d>d d2 d>e|(fg)(ab) (af)``ed |   b2 e>e e2
d>e|f>a e>f d>f  B>A|   A2{de}f>e d2 F2 |(GA)(BG) (Af) (ed)|   B2 d>d d2:|

